!!!!SEGMENT: pl-wumfc--n20769_paderewski-ignacy-jan--nocturne-op-16-no-4.krn
!!!cenid: 18xx:4078
!!!COM: Paderewski, Ignacy Jan
!!!COM-rismID: pe30029943
!!!CDT: 1860/11/18-1941/06/29
!!!CNT: Polish
!!!OTL: Nocturne op. 16 No. 4
!!!PDT:
!!!AGN:
!!!SMS-siglum: PL-Wumfc
!!!SMS-shelfmark: N20769
!!!SMS-shelfwork: W
!!!SMS-variant:
!!!SMS-altvar:
!!!NIFC-rismSourceID: 1001161355
!!!NIFC-rismChildID: 1001161355
!!!NIFC-islandoraID: pl-wumfc:1652
!!!URL-pdf-islandora: https://repozytorium.nifc.pl/islandora/object/pl-wumfc%3A1652/datastream/PDF/view
!!!URL-scan: https://polish.musicsources.pl/pl/lokalizacje/galeria/druki-muzyczne/11857 @EN{Scan on Polish Music Sources Website} @PL{Skany w portalu Dziedzictwo Muzyki Polskiej w otwartym dostępie}
!!!IIIF:
!!!ONB-nifc:
!!!OMD: Andantino con moto.
!!!AIN: 1 piano
!!!key: B-
**kern	**fing	**kern	**fing	**dynam
*part1	*part1	*part1	*part1	*part1
*staff2	*staff2	*staff1	*staff1	*
*I"Piano.	*	*I"Piano.	*	*
*I'	*	*I'	*	*
*Ipiano	*	*Ipiano	*	*
*ICklav	*	*ICklav	*	*
*clefF4	*	*clefG2	*	*
*k[b-e-]	*	*k[b-e-]	*	*
*B-:	*	*B-:	*	*
*M2/4	*	*M2/4	*	*
=1	=1	=1	=1	=1
*	*	*^	*	*
!	!	!	!	!	!LO:HP:b=2
!LO:TX:a:i:t=m. d.:rj	!	!LO:TX:b:i:t=grazioso.	!	!	!LO:DY:b:rj
4.BBB-\	.	2r	(16f<LL 16d< 16F<'/	.	p <
.	.	.	16f<J 16d< 16F<'/	.	.
.	.	.	8f<J 8d< 8B-<^/)	.	[
.	.	.	(16f<LL 16d< 16B-< 16A<'/	.	.
.	.	.	16f<J 16d< 16B-< 16A<'/	.	.
8r	.	.	8f<J 8d< 8B-< 8G<^/)	.	.
=2	=2	=2	=2	=2	=2
*ped	*	*	*	*	*
16C\LL	.	8r	16f< 16e-< 16B-< 16G</	.	.
*	*below	*	*	*	*
[16G\J	5	.	16rg<	.	.
*Xped	*	*	*	*	*
8fJ 8e- 8B- 8G^\]	1 2	(8ee-\	8ryy	.	>
*ped	*	*	*	*	*
(16fLL 16e- 16A'\	.	4cc\)	4ryy	.	]
[16fJ [16e- [>16A'\	.	.	.	.	.
8f]J 8e-] 8A] 8F\)	.	.	.	.	.
*Xped	*	*	*	*	*
=3	=3	=3	=3	=3	=3
4.BBB-\	.	2r	(16f<LL 16d< 16F<'/	.	.
.	.	.	16f<J 16d< 16F<'/	.	.
.	.	.	8f<J 8d< 8B-<^/)	.	.
.	.	.	(16f<LL 16d< 16B-< 16A<'/	.	.
.	.	.	16f<J 16d< 16B-< 16A<'/	.	.
8r	.	.	8f<J 8d< 8B-< 8G<^/)	.	.
!!LO:LB:g=original
=4	=4	=4	=4	=4	=4
16C\LL	.	8r	16f< 16e-< 16B-< 16G</	.	.
(>[16G\J	.	.	16rg<	.	.
8fJ 8e- 8B- 8G\])	.	(8ee-\	8ryy	.	>
(16fLL 16e- 16A'\	.	4cc\)	4ryy	.	]
[16fJ [16e- [>16A'\	.	.	.	.	.
8f]J 8e-] 8A] 8F\)	.	.	.	.	.
=5	=5	=5	=5	=5	=5
*ped	*	*	*	*	*
16DD\LL	5	4r	16f<: 16c<: 16F<:/	.	.
16fJ 16c\	2 5	.	16rcc<	.	.
*Xped	*	*	*	*	*
!	!	!	!	!	!LO:HP:a
8cc>:J 8f>: 8c>:\	.	.	8ryy	.	<
*ped	*	*	*	*	*
(16b->LL 16f> 16B->'\	.	8..ff/L	4ryy	.	.
16b->J 16f> 16B->'\	.	.	.	.	.
8a>J 8f> 8B-> 8A>\)	.	.	.	.	.
*Xped	*	*	*	*	*
.	.	(32ff/Jkk	.	.	.
*	*	*v	*v	*	*
=6	=6	=6	=6	=6
*ped	*Xbelow	*	*	*
16EE-\LL	5	8bb-/L)	.	.
[<16A\J	5	.	.	.
*Xped	*	*	*	*
!	!	!	!	!LO:HP:a
8a>J 8e-> 8B-> 8A^<\]	.	(>8bb-/J	.	>
*ped	*	*	*	*
(16g>LL 16e-> 16B->'\	.	4ee-/)	.	.
16g>J 16e-> 16B->'\	.	.	.	.
*Xped	*	*	*	*
8e-J 8B- 8G\)	.	.	.	]
!!LO:LB:g=original
=7	=7	=7	=7	=7
*	*	*^	*	*
*ped	*	*	*	*	*
!	!	!	!	!	!LO:HP:a
16CC\LL	.	4r	16e-<: 16B-<: 16E-<:/	.	<
*	*below	*	*	*	*
16e-\J	2	.	16rcc<	.	.
*Xped	*	*	*	*	*
8b->:J 8e->: 8B->:\	1 2 5	.	8ryy	.	.
*ped	*	*	*	*	*
(16a>LL 16e-> 16A>'\	.	8..ee-/L	4ryy	.	[
16a>J 16e-> 16A>'\	.	.	.	.	.
*Xped	*	*	*	*	*
8g>J 8e-> 8A> 8G>\)	.	.	.	.	.
.	.	(32ee-/Jkk	.	.	.
*	*	*v	*v	*	*
=8	=8	=8	=8	=8
*ped	*Xbelow	*	*	*
16DD\LL	5	8aa\L)	.	.
[<16G\J	5	.	.	.
*Xped	*	*	*	*
8gJ 8d 8c 8G\]	.	(8aa\J	.	.
*ped	*	*	*	*
(16f#XLL 16d 16c 16F#X'\	.	4dd\)	.	.
16f#J 16d 16c'\	.	.	.	.
*Xped	*	*	*	*
8dJ 8c 8F#\)	.	.	.	.
=9	=9	=9	=9	=9
*ped	*	*	*	*
16GG\LL	5	8r	.	.
*	*below	*	*	*
[16Fn\J	5	.	.	.
*Xped	*	*	*	*
8fnJ 8Bn 8G 8F^\]	1 2 4 _	(8dd\L	.	<
*ped	*	*	*	*
(16e-LL 16B 16G 16E-'\	.	8ee-\	.	.
16e-J 16B 16G 16E-'\	.	.	.	.
*Xped	*	*	*	*
8dJ 8B 8G 8D^\)	.	[8ff\J	.	[
!!LO:LB:g=original
=10	=10	=10	=10	=10
*	*	*	*	*^
*ped	*Xbelow	*	*	*	*
((16EE-\LL	5	8ff\])	.	.	.
[<16D\J)	5	.	.	.	.
*Xped	*	*	*	*	*
!	!	!LO:TX:b:i:t=rit.	!	!	!
8dJ 8G 8D\])	.	(4ff#X\	.	>	.
!	!	!	!	!	!LO:DY:b=2
(16d-XLL 16G 16D-X'\	.	.	.	.	p
16d-J 16G 16D-'\	.	.	.	.	.
8cJ 8G 8C^\)	.	8gg\)	.	]	.
*	*	*	*	*v	*v
=11	=11	=11	=11	=11
*ped	*	*	*	*
16CC/LL	.	8r	.	.
[16CC/J	.	.	.	.
8CC/J]	.	(8ee-\	.	p
(16e-LL 16B-'\	.	4g/)	.	.
16e-J 16B-'\	.	.	.	.
8E-\J)	.	.	.	.
*Xped	*	*	*	*
=12	=12	=12	=12	=12
*ped	*	*	*	*
!	!	!LO:TX:b:i:t=rall.	!	!
16FFF/LL	.	8r	.	.
[16FFF/J	.	.	.	.
8FFF/J]	.	(8ee-\	.	.
(16e-LL 16A'\	.	4g-X/)	.	.
16e-J 16A'\	.	.	.	.
8E-\J)	.	.	.	.
*Xped	*	*	*	*
!!LO:PB:g=original
=13	=13	=13	=13	=13
*	*	*^	*	*
!	!	!LO:TX:a:i:t=a tempo.	!	!	!
4.BBB-\	.	2r	(16f<LL 16d< 16F<'/	.	.
.	.	.	16f<J 16d< 16F<'/	.	.
.	.	.	8f<J 8d< 8B-<^/)	.	.
.	.	.	(16f<LL 16d< 16B-< 16A<'/	.	.
.	.	.	16f<J 16d< 16B-< 16A<'/	.	.
8r	.	.	8f<J 8d< 8B-< 8G<^/)	.	.
=14	=14	=14	=14	=14	=14
16C\LL	.	8r	16f< 16e-< 16B-< 16G</	.	.
[16G\J	.	.	16rg<	.	.
8fJ 8e- 8B- 8G^\]	.	(8ee-\	8ryy	.	.
(16fLL 16e- 16A'\	.	4cc\)	4ryy	.	.
[16fJ [16e- [16A'\	.	.	.	.	.
8f]J 8e-] 8A] 8F\)	.	.	.	.	.
=15	=15	=15	=15	=15	=15
4.BBB-\	.	2r	(16f<LL 16d< 16F<'/	.	.
.	.	.	16f<J 16d< 16F<'/	.	.
.	.	.	8f<J 8d< 8B-<^/)	.	.
.	.	.	(16f<LL 16d< 16B-< 16A<'/	.	.
.	.	.	16f<J 16d< 16B-< 16A<'/	.	.
8r	.	.	8f<J 8d< 8A-X<^/)	.	.
=16	=16	=16	=16	=16	=16
*ped	*	*	*	*	*
16BBn\LL	.	8r	16f< 16d< 16G</	.	.
16G\J	.	.	16rg<	.	.
8gJ 8f 8d\	.	(8ff\	8ryy	.	.
(16gLL 16f 16d'\	.	4dd\)	4ryy	.	.
[16gJ [16f [16d'\	.	.	.	.	.
8g]J 8f] 8d] 8G\)	.	.	.	.	.
*Xped	*	*	*	*	*
*	*	*v	*v	*	*
!!LO:LB:g=original
=17	=17	=17	=17	=17
*ped	*	*	*	*
(16C\LL	.	4ee-/	.	.
16e->\J)	.	.	.	.
*Xped	*	*	*	*
8dd>J 8e-> 8d>\	.	.	.	.
!	!	!	!	!LO:HP:a
(16cc>LL 16e-> 16c>'\	.	(8..ee-/L	.	<
16cc>J 16e-> 16c>'\	.	.	.	.
8b->J 8e-> 8B->^\)	.	.	.	.
.	.	32gg/Jk)	.	[[
=18	=18	=18	=18	=18
*ped	*	*	*	*
(16DD\LL	.	8ddd/L	.	.
16d>\J)	.	.	.	.
*Xped	*	*	*	*
8b->J 8d> 8B->\	.	(8ddd/J	.	.
(16a>LL 16d> 16A>'\	.	4ff#X/)	.	.
16a>J 16d> 16c>'\	.	.	.	.
8f#X>J 8d> 8A>^\)	.	.	.	.
=19	=19	=19	=19	=19
*ped	*	*	*	*
(16EE-\LL	.	4gg/	.	.
16g>\J)	.	.	.	.
*Xped	*	*	*	*
8ffn>J 8g> 8fn>\	.	.	.	.
!	!	!	!	!LO:HP:a
(16ee->LL 16g> 16e->'\	.	(8..gg/L	.	<
16ee->J 16g> 16e->'\	.	.	.	.
8dd>J 8g> 8d>\)	.	.	.	.
.	.	32bb-/Jkk)	.	[[
=20	=20	=20	=20	=20
*ped	*	*	*	*
(16FF\LL	.	8fff/	.	.
16f>\J)	.	.	.	.
*Xped	*	*	*	*
8dd-X>J 8f> 8d-X>\	.	4fff^/	.	.
(16cc>LL 16a> 16f> 16c>'\	.	.	.	.
16cc>J 16a> 16f>'\	.	.	.	.
8a>J 8f> 8c>\)	.	[8fff/	.	.
!!LO:LB:g=original
=21	=21	=21	=21	=21
*ped	*	*	*	*
!	!	!LO:TX:a:i:t=con forza.	!	!
(16GG\LL	.	(8fff/L]	.	.
16g>J 16e->\	.	.	.	.
*Xped	*	*	*	*
8ee->J 8g> 8e->\)	.	8eee-/	.	.
*ped	*	*	*	*
(16AA\LL	.	8.ggg/	.	.
16g>J 16e-> 16c>\	.	.	.	.
8ee->J 8g> 8e->\)	.	.	.	.
*Xped	*	*	*	*
.	.	16eee-/Jk	.	.
=22	=22	=22	=22	=22
*ped	*	*	*	*
!	!	!	!	!LO:HP:a
16DD\LL	.	8ddd/)	.	>
16f#X>J 16d> [16c>\	.	.	.	.
*Xped	*	*	*	*
8dd>J 8f#> 8d> 8c>\]	.	(4ddd/	5	.
*ped	*	*	*	*
16GG\LL	.	.	.	.
16g>J 16fn> 16Bn>\	.	.	.	.
*Xped	*	*	*	*
8bn>J 8g> 8f>\	.	[8dd/)	.	]
=23	=23	=23	=23	=23
(16C\LL	.	(8dd\L]	.	.
16e-J 16c 16G\	.	.	.	.
8gJ 8e- 8c\)	.	8cc\	.	.
*ped	*	*	*	*
(16FF\LL	.	8.ee-\	.	p
16cJ 16F\	.	.	.	.
8fJ 8e- 8c\)	.	.	.	.
*Xped	*	*	*	*
.	.	16a\Jk	.	.
=24	=24	=24	=24	=24
*ped	*	*	*	*
(16BBB-\LL	.	4.b-\)	.	.
16dJ 16B- 16F\	.	.	.	.
8fJ 8d 8B-\)	.	.	.	.
(16fLL 16d 16B-'\	.	.	.	.
16fJ 16d 16B-'\	.	.	.	.
*Xped	*	*	*	*
8F\J)	.	8r	.	.
!!LO:LB:g=original
=25	=25	=25	=25	=25
*^	*	*	*	*
*ped	*	*	*	*	*
!	!	!	!LO:TX:b:i:t=molto cantando.	!	!
8r	[2F\	.	16r	.	.
.	.	.	(16ccKL 16a-X\	.	.
!	!	!	!	!	!LO:HP:b=2
8c/L	.	.	8aa-XJ 8cc 8a-\)	.	<
8d/	.	.	16r	.	.
.	.	.	(16ccKL 16a-\	.	.
8e-/J	.	.	8ggJ 8cc 8a-\)	.	[
=26	=26	=26	=26	=26	=26
(4g/	2F\]	.	16r	.	.
.	.	.	(16ddKL 16cc 16a-X\	.	.
.	.	.	8ggJ 8dd 8cc 8a-\)	.	.
8f/L	.	.	16r	.	.
.	.	.	(16ddKL 16cc 16a-\	.	.
8e-/J)	.	.	8ggJ 8ee- 8cc 8a-\)	.	.
=27	=27	=27	=27	=27	=27
(8d/L	2F\	.	16r	.	.
.	.	.	(16ddKL 16cc 16a-X\	.	.
!	!	!	!	!	!LO:HP:b=2
8e-/	.	.	8ggJ 8ee- 8cc 8a-\)	.	>
8g/	.	.	16r	.	.
.	.	.	(16ddKL 16cc 16a-\	.	.
8f/J)	.	.	8ggJ 8cc 8a-\)	.	]
=28	=28	=28	=28	=28	=28
!	!	!	!LO:TX:a:i:t=rit.	!	!
4G^<\	(>8d/L	.	16r	.	p
.	.	.	(16ddKL 16cc 16f\	.	.
.	8e-/J	.	8ggJ 8bn 8g 8f\)	.	.
*ped	*	*	*	*	*
8G 8C\	4c/)	.	16ccLL 16g 16e-\	.	.
.	.	.	[<16ccJ [<16g [<16e-\	.	.
!	!	!	!LO:TX:a:i:t=a tempo.\n m. g.	!	!
(>8ccc>/L	.	.	8cc]J 8g] 8e-\]	.	.
*v	*v	*	*	*	*
!!LO:PB:g=original
=29	=29	=29	=29	=29
8gg>/J)	.	16ccLL 16a-X 16f 16d\	.	.
.	.	[<16ccJ [<16a- [<16f [<16d\	.	.
(8G\L	.	8cc]J 8a-] 8f] 8d\]	.	.
*ped	*	*	*	*
8C\J)	.	16ccLL 16g 16e-\	.	.
.	.	[<16ccJ [<16g [<16e-\	.	.
(>8ccc>/L	.	8cc]J 8g] 8e-\]	.	.
*Xped	*	*	*	*
=30	=30	=30	=30	=30
*^	*	*	*	*
8gg>/J)	8ryy	.	16ccLL 16a-X 16f 16d\	.	.
.	.	.	[<16ccJ [<16a- [<16f [<16d\	.	.
(<8G\	8ryy	.	8cc]J 8a-] 8f] 8d\]	.	.
*ped	*	*	*	*	*
8rc	[4C\)	.	16ccLL 16g 16e-\	.	.
.	.	.	(16cc\J	1	.
(8c/	.	.	8cccJ 8gg 8ee-\)	2 3 5	.
*Xped	*	*	*	*	*
=31	=31	=31	=31	=31	=31
8d/L	4C\]	.	16r	.	.
.	.	.	(16ee-KL 16cc 16g\	.	.
8e-/J)	.	.	8ggJ 8ee- 8cc 8g\)	.	.
*ped	*	*	*	*	*
8rc	[4E-\	.	16r	.	.
.	.	.	(16b-KL 16g-X\	.	.
!	!	!	!	!	!LO:HP:a=2
(8B-L/	.	.	8gg-XJ 8b- 8g-\)	.	<
!!LO:LB:g=original
=32	=32	=32	=32	=32	=32
*Xped	*	*	*	*	*
8c/	2E-_\	.	16r	.	.
.	.	.	(16b-KL 16g-X\	.	.
8d-X/J	.	.	8ffJ 8b- 8g-\)	.	[
*ped	*	*	*	*	*
4f/	.	.	16r	.	.
.	.	.	(16ccKL 16b- 16g-\	.	.
.	.	.	8ffJ 8cc 8b- 8g-\)	.	.
=33	=33	=33	=33	=33	=33
8e-/L	4E-\]	.	16r	.	.
.	.	.	(16ccKL 16b- 16g-X\	.	.
*Xped	*	*	*	*	*
8d-X/J)	.	.	8ffJ 8dd-X 8b- 8g-\)	.	.
*ped	*	*	*	*	*
(8c/L	[4E-\	.	16r	.	.
.	.	.	(16ccKL 16b- 16g-\	.	.
8d-/J	.	.	8ffJ 8dd- 8b- 8g-\)	.	.
=34	=34	=34	=34	=34	=34
!	!	!	!	!	!LO:HP:b=2
8f/L	4E-\]	.	16r	.	>
.	.	.	(16ccKL 16b- 16g-X\	.	.
8e-/J)	.	.	8ffJ 8b- 8g-\)	.	.
*Xped	*	*	*	*	*
!	!	!	!LO:TX:b:i:t=rit.	!	!
(8c/L	4F\	.	16r	.	.
.	.	.	(16ccKL 16b- 16f\	.	.
!	!	!	!	!	!LO:DY:b=2
8d-X/J	.	.	8ffJ 8an 8f\)	.	] p
=35	=35	=35	=35	=35	=35
*ped	*	*	*	*	*
!	!	!	!LO:TX:b:i:t=a tempo.	!	!
8F 8BB-\	4B-/)	.	16dd-XLL 16b- 16f\	.	.
.	.	.	[16dd-J [16b- [<16f\	.	.
*Xped	*	*	*	*	*
!	!	!	!LO:TX:a:i:t=m. g.	!	!
(>8bb->/L	.	.	8dd-]J 8b-] 8f\]	.	.
8ff>/J)	8ryy	.	16ee-LL 16cc 16b- 16f\	.	.
.	.	.	[16ee-J [16cc 16b- [<16f\	.	.
(8F\L	8ryy	.	8ee-]J 8cc] 8a 8f\]	.	.
*v	*v	*	*	*	*
!!LO:LB:g=original
=36	=36	=36	=36	=36
*ped	*	*	*	*
8BB-\J)	.	16dd-XLL 16b- 16f\	.	.
.	.	[16dd-J [16b- [<16f\	.	.
(>8bb->/L	.	8dd-]J 8b-] 8f\]	.	.
*Xped	*	*	*	*
8ff>/J)	.	16ee-LL 16cc 16b- 16f\	.	.
.	.	[16ee-J [16cc 16b- [<16f\	.	.
(8F\	.	8ee-]J 8cc] 8a 8f\]	.	.
=37	=37	=37	=37	=37
*	*	*^	*	*
*ped	*	*	*	*	*
4BB-\)	.	8ryy	(16dd-XLL 16b- 16f'\	.	.
.	.	.	16dd-JJ 16b- 16f'\)	.	.
.	1	8r	(8d-X</L	.	.
*	*below	*	*	*	*
(16cLL 16F'\	2 5	4ryy	8e-/	.	.
16cJ 16F'\	.	.	.	.	.
8d 8B-\J)	1 3	.	8f/J)	.	.
=38	=38	=38	=38	=38	=38
!	!	!	!	!	!LO:HP:a:t=molto cresc.
16EE-\LL	.	(8g-X/L	16e- 16B-\	.	<
16e-J 16B-\	.	.	16ryy	.	.
8fJ 8B-\	.	8a-X/	8ryy	.	.
(16fLL 16e-'\	.	8an/	4ryy	.	.
16fJ 16e-'\	.	.	.	.	.
8g-XJ 8e- 8d-X\)	.	8b-/J)	.	.	.
=39	=39	=39	=39	=39	=39
*ped	*	*	*	*	*
16AA-X\LL	.	8bn:/L	16g-X: 16e-: 16Bn:\	.	.
[16Bn\J	.	.	16ryy	.	.
*Xped	*	*	*	*	*
8bny>J 8g-y> 8e-> 8B\]	.	(>8gg-X/	8ryy	.	.
*ped	*	*	*	*	*
16cc>:LL 16a-X>: 16g->: 16e->: 16c>^:\	.	8.ff/	8.ryy	.	.
16cc>J 16a-> 16g-> 16e-> 16c>\	.	.	.	.	.
8AA-\J	.	.	.	.	.
*Xped	*	*	*	*	*
.	.	16ee-/Jk	16ryy	.	.
*	*	*v	*v	*	*
!!LO:LB:g=original
=40	=40	=40	=40	=40
*^	*	*	*	*
8r	2DD-X\	.	16dd-X/LL)	.	.
.	.	.	16fJ 16d-X/	.	.
!LO:TX:b:Bi:t=poco pm - forte.:problem:dynamics with extension lines	!	!	!	!	!LO:DY:b=2:t=poco pm - forte.
(8D-X/L	.	.	8a-XJ 8f 8d-/	.	p
8E-/	.	.	16r	.	.
.	.	.	(>16d-KL 16c/	.	.
8F/J)	.	.	8anJ 8d- 8c-/)	.	.
=41	=41	=41	=41	=41	=41
(8G-X/L	2GG-X\	.	16r	.	.
.	.	.	(>16d-XKL 16B-/	.	.
8A-X/	.	.	8b-J 8d- 8B-/)	.	.
8An/	.	.	16r	.	.
.	.	.	(>16g-XKL 16cn/	.	.
8B-/J)	.	.	8b-J 8g- 8d-/)	.	.
*v	*v	*	*	*	*
=42	=42	=42	=42	=42
*ped	*	*	*	*
8CC\L	.	16B-/LL	1	sf
.	.	16b-JJ 16g-X 16e-/	2 3 5	.
8b->:J 8g>: 8e->: 8B->:\	.	(>8ff/L	5	.
*Xped	*	*	*	*
16b->LL 16en>\	.	8ee-X/	.	.
16b->J 16e>\	.	.	.	.
8B->\J	.	8dd-X/J	.	.
!!LO:PB:g=original
=43	=43	=43	=43	=43
*	*	*^	*	*
*ped	*	*	*	*	*
8FF\	.	8cc:/)	16f:LL 16An:\	.	.
.	.	.	[>16aJ [>16f [16c\	.	.
*Xped	*	*	*	*	*
!	!	!	!LO:TX:a:i:t=m. g.	!	!
(>8ff>/L	.	8ryy	8a]J 8f] 8c\]	.	.
*ped	*	*	*	*	*
8dd-X>/J)	.	16ryy	16b-LL 16en 16B-\	.	.
.	.	16ryy	[>16b-J [>16e [16B-\	.	.
*Xped	*	*	*	*	*
(8G-X\L	.	8ryy	8b-]J 8e] 8B-\]	.	.
*	*	*v	*v	*	*
=44	=44	=44	=44	=44
*ped	*	*	*	*
8CJ 8FF\)	.	16aLL 16f 16A\	.	.
.	.	[16aJ [16f [<16A\	.	.
(>8ff>/L	.	8a]J 8f] 8A\]	.	.
8dd-X>/J)	.	16b-LL 16en 16B-\	.	.
.	.	[16b-J [16e [<16B-\	.	.
(8G-X\L	.	8b-]J 8e] 8B-\]	.	.
=45	=45	=45	=45	=45
*	*	*	*	*^
*ped	*	*	*	*	*
8CJ 8FF\)	.	16aLL 16f 16A\	.	<	.
.	.	[16aJ [16f [<16A\	.	.	.
(>8ff>/L	.	8a]J 8f] 8A\]	.	.	.
*Xped	*	*	*	*	*
8dd-X>/J)	.	16b-LL 16en 16B-\	.	.	.
.	.	[16b-J [16e [<16B-\	.	.	.
(8F\L	.	8b-]J 8e] 8B-\]	.	.	.
=46	=46	=46	=46	=46	=46
!	!	!	!	!	!LO:HP:a:t=molto cresc. ed accel.
8DnJ 8FF\)	.	16aLL 16f 16A\	.	.	<
.	.	[16aJ [16f [<16A\	.	.	.
(>8ff>/L	.	8a]J 8f] 8A\]	.	.	.
8ddn>/J)	.	16b-LL 16f 16B-\	.	.	.
.	.	[16b-J [16f [<16B-\	.	.	.
(8Gn\L	.	8b-]J 8f] 8B-\]	.	.	.
!!LO:LB:g=original
=47	=47	=47	=47	=47	=47
8E-J 8FF\)	.	16bnLL 16g 16Bn\	.	.	.
.	.	[16bJ [16g [<16B\	.	.	.
(>8gg>/L	.	8b]J 8g] 8B\]	.	.	.
8ee->/J)	.	16ccLL 16g 16c\	.	.	.
.	.	[16ccJ [16g [<16c\	.	.	.
(8A\L	.	8cc]J 8g] 8c\]	.	[[	.
*	*	*	*	*v	*v
=48	=48	=48	=48	=48
!	!	!LO:TX:b:Bi:t=cresc.-:problem:dynamics with extension lines	!	!LO:HP:t=cresc.
8FJ 8FF\)	.	16cc#XLL 16a 16c#X\	.	<
.	.	[16cc#J [16a [<16c#\	.	.
(>8aa>/L	.	8cc#]J 8a] 8c#\]	.	.
8ff>/J)	.	16ddLL 16a 16d\	.	.
.	.	[16ddJ [16a [<16d\	.	.
(8A\L	.	8dd]J 8a] 8d\]	.	.
=49	=49	=49	=49	=49
*ped	*	*	*	*
8F 8FF\J)	.	16ee-LL 16a 16e-\	.	.
.	.	[16ee-J [16a [<16e-\	.	.
(>8aa>/L	.	8ee-]J 8a] 8e-\]	.	.
8ff>/J)	.	16ee-LL 16a 16e-\	.	[ f
.	.	[16ee-J [16a [<16e-\	.	.
(8A\L	.	8ee-]J 8a] 8e-\]	.	.
=50	=50	=50	=50	=50
*	*	*	*	*^
8FJ 8FF\)	.	16ee-LL 16a 16e-\	.	.	.
.	.	[16ee-J [16a [<16e-\	.	.	.
(>8aa>^>/L	.	8ee-]J 8a] 8e-\]	.	.	.
8ff>/J)	.	16ee-LL 16a 16e-\	.	>	.
.	.	[16ee-J [16a [<16e-\	.	.	.
(8A\L	.	8ee-]J 8a] 8e-\]	.	.	.
!!LO:LB:g=original
=51	=51	=51	=51	=51	=51
!	!	!LO:TX:b:i:t=rall. molto.	!	!	!LO:HP:a:t=dim.
8FJ 8FF\)	.	16ee-LL 16a 16e-\	.	.	>
.	.	[16ee-J [16a [<16e-\	.	.	.
(>8aa>/L	.	8ee-]J 8a] 8e-\]	.	.	.
8ff>/J)	.	16ee-LL 16a 16e-\	.	.	.
.	.	[16ee-J [16a [<16e-\	.	.	.
(8A\L	.	8ee-]J 8a] 8e-\]	.	.	.
=52	=52	=52	=52	=52	=52
!	!	!	!	!	!LO:DY:rj
8FJ 8FF\)	.	16ee-LL 16a 16e-\	.	.	pp
.	.	[16ee-J [16a [<16e-\	.	.	.
(>8aa>/L	.	8ee-J] 8a] 8e-]\	.	.	.
8ff>/J)	.	16ee-LL 16a 16e-\	.	.	.
.	.	16ee-JJ 16a 16e-\	.	.	.
*Xped	*	*	*	*	*
!	!	!LO:TX:a:i:t=m. d.	!	!	!
8F\	.	8aa\	.	]	.
*	*	*	*	*v	*v
=53	=53	=53	=53	=53
*ped	*	*	*	*
(16BBB-\LL	.	8ff\	.	.
16F\J	.	.	.	.
*Xped	*	*	*	*
!	!	!LO:TX:a:t=Tempo I.	!	!
8fJ 8d 8B-^\)	.	(8bb-\L	.	.
(16fLL 16d 16B- 16A'\	.	8.bb-\)	.	.
16fJ 16d 16B- 16A'\	.	.	.	.
8fJ 8d 8B- 8G^\)	.	.	.	.
.	.	(16bb-\Jk	.	.
=54	=54	=54	=54	=54
*ped	*	*	*	*
16CC\LL	.	8eee-\)	.	.
([<16G\J	.	.	.	.
*Xped	*	*	*	*
8fJ 8e- 8B- 8G\])	.	(8eee-\L	.	.
(16fLL 16e- 16A'\	.	8..ccc\	.	.
[16fJ [16e- [>16A'\	.	.	.	.
8f]J 8e-] 8A] 8F\)	.	.	.	.
.	.	32aa\Jkk	.	.
!!LO:LB:g=original
=55	=55	=55	=55	=55
*ped	*	*	*	*
(16BBB-\LL	.	8ff\)	.	.
16F\J	.	.	.	.
*Xped	*	*	*	*
8fJ 8d 8B-\)	.	(8bb-\L	.	.
(16fLL 16d 16B- 16A'\	.	8.bb-\)	.	.
16fJ 16d 16B- 16A'\	.	.	.	.
8fJ 8d 8B- 8G^\)	.	.	.	.
.	.	(16bb-\Jk	.	.
=56	=56	=56	=56	=56
(16CC\LL	.	8eee-\)	.	.
[<16G\J	.	.	.	.
8fJ 8e- 8B- 8G\])	.	(8eee-\L	.	.
(16fLL 16e- 16A'\	.	8..ccc\	.	.
[16fJ [16e- [>16A'\	.	.	.	.
8f]J 8e-] 8A] 8F\)	.	.	.	.
.	.	32aa\Jkk)	.	.
=57	=57	=57	=57	=57
*ped	*	*	*	*
16DD\LL	.	4fff\	.	.
(16f\J	.	.	.	.
*Xped	*	*	*	*
8ccJ 8f 8c\)	.	.	.	.
*ped	*	*	*	*
(16b-LL 16f 16B-'\	.	8..fff\L	.	.
16b-J 16f 16B-'\	.	.	.	.
8aJ 8f 8B- 8A\)	.	.	.	.
*Xped	*	*	*	*
.	.	(32fff\Jkk	.	.
=58	=58	=58	=58	=58
*ped	*	*	*	*
(16EE-\LL	.	8bbb-\L)	.	.
16e-J 16B- [16A\	.	.	.	.
*Xped	*	*	*	*
8aJ 8e- 8B- 8A\])	.	(8bbb-\J	.	.
*ped	*	*	*	*
(16gLL 16e- 16B- 16G'\	.	4eee-\)	.	.
16gJ 16e- 16B-'\	.	.	.	.
*Xped	*	*	*	*
8e-J 8B- 8G\)	.	.	.	.
!!LO:PB:g=original
=59	=59	=59	=59	=59
*ped	*	*	*	*
(16CC\LL	.	4eee-\	.	.
16e-\J	.	.	.	.
*Xped	*	*	*	*
8b-J 8e- 8B-\)	.	.	.	.
*ped	*	*	*	*
(16aLL 16e- 16A'\	.	8..eee-\L	.	.
16aJ 16e- 16A'\	.	.	.	.
*Xped	*	*	*	*
8gJ 8e- 8A 8G\)	.	.	.	.
.	.	(32eee-\Jk	.	.
=60	=60	=60	=60	=60
*ped	*	*	*	*
(16DD\LL	.	8aaa\L)	.	.
16dJ 16c [16G\	.	.	.	.
*Xped	*	*	*	*
8gJ 8d 8c 8G\])	.	(8aaa\J	.	.
*ped	*	*	*	*
(16f#XLL 16d 16c 16F#X'\	.	[4ddd\)	.	.
16f#J 16d 16c'\	.	.	.	.
*Xped	*	*	*	*
8dJ 8c 8F#\)	.	.	.	.
=61	=61	=61	=61	=61
*ped	*	*	*	*
(16GG\LL	.	8ddd\L]	.	.
16Fn\J	.	.	.	.
*Xped	*	*	*	*
8fJ 8Bn 8G 8F\)	.	(8dd\	.	<
*ped	*	*	*	*
(16e-LL 16B 16G 16E-'\	.	8ee-\	.	.
16e-J 16B 16G 16E-'\	.	.	.	.
*Xped	*	*	*	*
8dJ 8B 8G 8D\)	.	[8ff\J	.	[
!!LO:LB:g=original
=62	=62	=62	=62	=62
*	*	*	*	*^
*ped	*	*	*	*	*
(16EE-\LL	.	8ff\])	.	.	.
[<16D\J	.	.	.	.	.
*Xped	*	*	*	*	*
!	!	!LO:TX:a:i:t=rit.	!	!	!
8dJ 8G 8D\])	.	(4ff#X\	.	>	.
!	!	!	!	!	!LO:DY:b=2
(16d-XLL 16G 16D-X'\	.	.	.	.	p
16d-J 16G 16D-'\	.	.	.	.	.
8cJ 8G 8C\)	.	8gg\)	.	]	.
*	*	*	*	*v	*v
=63	=63	=63	=63	=63
*ped	*	*	*	*
16CC/LL	.	8r	.	.
[16CC/J	.	.	.	.
8CC/J]	.	(8ee-\	.	p
!	!	!LO:TX:a:i:t=più lento.	!	!
(16e-LL 16B-'\	.	4g/)	.	.
16e-J 16B-'\)	.	.	.	.
*Xped	*	*	*	*
8E-\J	.	.	.	.
=64	=64	=64	=64	=64
*ped	*	*	*	*
16FFF/LL	.	8r	.	.
[16FFF/J	.	.	.	.
8FFF/J]	.	(8ee-\	.	.
(16e-LL 16A'\	.	4g-X/)	.	.
16e-J 16A'\)	.	.	.	.
8E-\J	.	.	.	.
*Xped	*	*	*	*
=65	=65	=65	=65	=65
!	!	!LO:TX:a:t=Tempo I.	!	!
2FF 2BBB-\	.	(16f<LL 16d< 16F<'/	.	pp
.	.	16f<J 16d< 16F<'/	.	.
.	.	8f<J 8d< 8B-<^/)	.	.
.	.	(16f<LL 16d-< 16B-< 16A-X<'/	.	.
.	.	16f<J 16d-< 16B-< 16A-<'/	.	.
.	.	8f<J 8d-< 8B-< 8G-X<^/)	.	.
!!LO:LB:g=original
=66	=66	=66	=66	=66
*ped	*	*	*	*
8FF 8BBB-\	.	(16f<LL 16e-< 16c< 16F<'/	.	.
!	!	!LO:TX:a:i:t=m. g.	!	!
.	.	[16f<J [<16e-< [<16c< [<16F<'/	.	.
(>8ee->/L	.	8f<]J 8e-<] 8c<] 8F<]/)	.	.
8cc>/J)	.	(>16f<LL 16e-< 16c< 16F<'>/	.	.
.	.	[16f<J [<16e-< [<16c< [<16F<'>/	.	.
[8FF\	.	8f<]J 8e-<] 8c<] 8F<]/)	.	.
*Xped	*	*	*	*
=67	=67	=67	=67	=67
2FF] 2BBB-\	.	(16f<LL 16dn< 16F<'/	.	.
.	.	16f<J 16d< 16F<'/	.	.
.	.	8f<J 8d< 8B-<^/)	.	.
.	.	(16f<LL 16d-X< 16B-< 16A-X<'/	.	.
.	.	16f<J 16d-< 16B-< 16A-<'/	.	.
.	.	8f<J 8d-< 8B-< 8G-X<^/)	.	.
=68	=68	=68	=68	=68
*ped	*	*	*	*
8FF 8BBB-\	.	(16f<LL 16e-< 16c< 16F<'/	.	.
.	.	[16f<J [<16e-< [<16c< [<16F<'/	.	.
(>8ee->/L	.	8f<]J 8e-<] 8c<] 8F<]/)	.	.
8cc>/J)	.	(>16f<LL 16e-< 16c< 16F<'/	.	.
.	.	[16f<J [<16e-< [<16c< [<16F<'/	.	.
[8FF\	.	8f<]J 8e-<] 8c<] 8F<]/)	.	.
*Xped	*	*	*	*
!!LO:LB:g=original
=69	=69	=69	=69	=69
2FF_ [2BBB-\	.	(16f<LL 16d< 16B-< 16F</	.	.
.	.	16f<JJ 16d< 16B-< 16F</	.	.
.	.	8dd 8b- 8d/)	.	.
.	.	(16ddLL 16b- 16a 16d'/	.	.
.	.	16ddJ 16b- 16a 16d'/	.	.
.	.	8ddJ 8b- 8g 8d^/)	.	.
=70	=70	=70	=70	=70
*ped	*	*	*	*
(16FF]LL 16BBB-\]	.	(8ddL 8b- 8f 8d\	.	.
16F\J	.	.	.	.
*Xped	*	*	*	*
8fJ 8d 8B-\)	.	8b-\	.	.
(16fLL 16d 16B- 16A'\	.	8dd\	.	.
16fJ 16d 16B- 16A'\	.	.	.	.
8fJ 8d 8B- 8G'\)	.	8ff\J	1	.
=71	=71	=71	=71	=71
*	*	*^	*	*
8d:: 8A:: 8F::\	.	4fff\)	(4f<^::/	.	.
8r	.	.	.	.	.
4r	.	[4f/)	4ryy	5	.
*	*	*v	*v	*	*
=72	=72	=72	=72	=72
*ped	*	*	*	*
2r	.	2f/_	.	.
=73	=73	=73	=73	=73
*^	*	*	*	*
4e- 4A 4F/	4FF 4FFF\	.	2f/_	.	.
4rC	4r	.	.	.	.
*Xped	*	*	*	*	*
=74	=74	=74	=74	=74	=74
4d 4B- 4F/	4BBB- 4BBBB-\	.	2f/]	.	.
4rC	4r	.	.	.	.
*v	*v	*	*	*	*
==	==	==	==	==
*-	*-	*-	*-	*-
!!!system-decoration: {(*)}
!!!RDF**kern: > = above
!!!RDF**kern: < = below
!!!ENC: Berenika Jozajtis
!!!END: 2022-08-19
!!!ENC: Andrzej Kubiczek
!!!END: 2022-09-19
!!!YEC: Copyright 2022 Narodowy Instytut Fryderyka Chopina (https://polishscores.org)
!!!YEM: License CC-BY-4.0 (https://creativecommons.org/licenses/by/4.0)
